X: 451
U:~=!turn!
M:C
L:1/8
K:F
f<c a>f c>f A>c | B<G g>b e>g c>g | f<c a>f c>f A>c | B>g e>g c>g f>a |
f<c a>f c>f A>c | B<G g>b e>g c>g | (3Acf (3Bdf (3egb (3efa | (3bge (3afc f2 fa |]


